X: 130
T: Old Mole
M:6/8
L:1/8
Q:160
S:Playford
O:Manuscript
A:English
K:F
d2 d B>cd|e2 d A2 A| d2 d B>cd| e3 a3| f2 d B>cd|e2 c A2 A|B>cd c>Bc|d3 d3:|

